fs/dentist_16_regular.svg

<svg viewBox="0 0 16 16" fill="none" xmlns="http://www.w3.org/2000/svg" height="1em" width="1em">
  <path d="M10.5828 4.23853C10.3066 4.23853 10.0828 4.46238 10.0828 4.73853C10.0828 5.01467 10.3066 5.23853 10.5828 5.23853C10.8247 5.23853 11.0248 5.31081 11.1698 5.43979C11.3117 5.56606 11.445 5.7861 11.483 6.1668C11.5105 6.44157 11.7555 6.64204 12.0303 6.61456C12.3051 6.58709 12.5056 6.34206 12.4781 6.06729C12.4198 5.48399 12.1964 5.01477 11.8346 4.69278C11.4758 4.3735 11.0253 4.23853 10.5828 4.23853ZM7.10744 2.79665C6.26814 2.1218 5.33652 1.97853 4.50283 2.14127C3.68498 2.30092 2.96369 2.75257 2.48428 3.271L2.48171 3.2738C1.95856 3.84824 1.424 4.59323 1.37818 5.68131L1.37812 5.68275C1.35717 6.217 1.4335 6.99607 1.85533 7.59159L1.86098 7.59941C2.30713 8.2042 2.55574 8.55757 2.68032 8.90017C2.82362 9.29234 2.82382 9.68786 2.82374 10.277L2.82374 10.3199L2.82376 10.3246C2.82909 10.8949 2.94956 11.6815 3.24147 12.398C3.52905 13.1039 4.02418 13.8377 4.83957 14.1348L4.86054 14.1424L4.8821 14.1481C5.35503 14.2741 5.80766 14.232 6.1514 13.9106C6.45128 13.6303 6.57258 13.2165 6.63971 12.8581C6.70171 12.527 6.73308 12.1423 6.76358 11.7682L6.77517 11.6268C6.81103 11.1951 6.8519 10.7674 6.93643 10.3648L6.93692 10.3624C7.16294 9.25943 7.48756 9.08603 7.61317 9.04706C7.98365 8.95172 8.2054 9.00249 8.34921 9.08414C8.50548 9.17285 8.64989 9.34364 8.77424 9.62606C9.03156 10.2105 9.10841 11.0397 9.17826 11.808C9.23799 12.5708 9.39739 13.2733 9.71224 13.7288C9.87658 13.9665 10.1135 14.1792 10.4376 14.2488C10.7649 14.3192 11.0799 14.2223 11.353 14.0478C12.3467 13.4133 12.9166 12.1021 13.0666 10.3925C13.1377 9.58201 13.2194 9.21951 13.3402 8.92775C13.4022 8.77788 13.4797 8.63447 13.59 8.44544C13.6222 8.39021 13.6578 8.33021 13.6963 8.26525C13.7857 8.11459 13.8909 7.93722 14.0069 7.7307L14.0076 7.72953C14.2242 7.34156 14.5804 6.63159 14.6211 5.79911C14.6636 4.93214 14.361 3.97656 13.3461 3.15461C12.3801 2.37138 11.4741 2.08151 10.6589 2.12426C9.85181 2.16659 9.20666 2.5311 8.74641 2.92012L8.73042 2.93363L8.71562 2.94844C8.27775 3.38631 8.09282 3.44296 7.99275 3.43868C7.87147 3.4335 7.64535 3.33534 7.14943 2.8345L7.12951 2.81439L7.10744 2.79665ZM2.37733 5.72265C2.4088 4.98023 2.7604 4.45322 3.21973 3.94858C3.56939 3.57105 4.10554 3.2377 4.69442 3.12275C5.26136 3.01208 5.87858 3.10149 6.45989 3.55931C6.9306 4.03203 7.40232 4.41438 7.95009 4.43777C8.52024 4.46212 8.98171 4.09434 9.40711 3.67112C9.75426 3.38162 10.1932 3.15006 10.7113 3.12289C11.2287 3.09575 11.8989 3.2686 12.7163 3.93137C13.475 4.54573 13.6497 5.1905 13.6223 5.75018C13.5932 6.34413 13.3326 6.88712 13.1348 7.24144C13.0246 7.43749 12.9304 7.59634 12.8436 7.74264C12.8032 7.81072 12.7644 7.87619 12.7264 7.94132C12.6099 8.1409 12.5048 8.33128 12.4162 8.54531C12.2357 8.98137 12.1439 9.46719 12.0704 10.3051C11.9312 11.8924 11.4214 12.8177 10.8148 13.205C10.7514 13.2455 10.7071 13.2617 10.6813 13.268C10.6582 13.2735 10.649 13.2714 10.6479 13.2712C10.6467 13.2709 10.6377 13.269 10.62 13.2556C10.6004 13.2407 10.5707 13.2121 10.5348 13.1602C10.3754 12.9295 10.2311 12.4476 10.175 11.7271L10.1744 11.7206L10.1677 11.6464C10.1035 10.9362 10.0155 9.9637 9.68946 9.22311C9.51617 8.82953 9.25389 8.44782 8.84291 8.2145C8.42051 7.9747 7.91662 7.93404 7.35206 8.08169L7.34506 8.08352L7.33812 8.08555C6.66895 8.28141 6.20994 8.9297 5.95752 10.1605C5.85906 10.6299 5.81442 11.1128 5.7786 11.5441L5.7671 11.6837C5.73551 12.069 5.70855 12.3977 5.6568 12.674C5.5962 12.9976 5.51988 13.1321 5.4685 13.1801L5.46743 13.1812C5.45696 13.1917 5.40172 13.2474 5.16139 13.1875C4.74276 13.0256 4.4063 12.6067 4.16756 12.0207C3.92966 11.4368 3.82836 10.7785 3.82374 10.3175L3.82386 10.2143C3.82478 9.68243 3.82575 9.12146 3.61998 8.55807C3.43651 8.05374 3.08878 7.57928 2.66884 7.01002C2.43723 6.68015 2.35989 6.1699 2.37733 5.72265Z" fill="#212121"/>
</svg>

<svg viewBox="0 0 16 16" fill="none" xmlns="http://www.w3.org/2000/svg" height="1em" width="1em">
  <path d="M10.583 4.239a.5.5 0 1 0 0 1c.242 0 .442.072.587.2.142.127.275.347.313.728a.5.5 0 0 0 .995-.1c-.058-.583-.282-1.052-.643-1.374a1.86 1.86 0 0 0-1.252-.454ZM7.107 2.797a3.108 3.108 0 0 0-2.604-.656c-.818.16-1.54.612-2.019 1.13l-.002.003c-.523.574-1.058 1.32-1.104 2.407v.002c-.02.534.056 1.313.477 1.909l.006.007c.446.605.695.959.82 1.301.143.392.143.788.143 1.377v.048c.005.57.126 1.357.417 2.073.288.706.783 1.44 1.599 1.737l.02.007.022.006c.473.126.926.084 1.27-.237.3-.28.42-.694.488-1.053.062-.331.093-.716.124-1.09l.011-.141c.036-.432.077-.86.161-1.262v-.003c.227-1.103.552-1.276.677-1.315.37-.095.592-.045.736.037.156.089.3.26.425.542.258.585.334 1.414.404 2.182.06.763.22 1.465.534 1.92.165.239.402.451.726.52.327.071.642-.026.915-.2.994-.635 1.564-1.946 1.714-3.655.07-.811.152-1.173.273-1.465.062-.15.14-.294.25-.483l.106-.18c.09-.15.195-.328.31-.534l.002-.001c.216-.388.572-1.098.613-1.93.043-.868-.26-1.823-1.275-2.645-.966-.784-1.872-1.073-2.687-1.03-.807.042-1.452.406-1.913.795l-.016.014-.014.014c-.438.438-.623.495-.723.49-.122-.005-.348-.103-.844-.604l-.02-.02-.022-.017Zm-4.73 2.926c.032-.743.383-1.27.843-1.774.35-.378.886-.711 1.474-.826a2.106 2.106 0 0 1 1.766.436c.47.473.942.855 1.49.879.57.024 1.032-.344 1.457-.767.347-.29.786-.52 1.304-.548.518-.027 1.188.146 2.005.808.759.615.934 1.26.906 1.82-.029.593-.29 1.136-.487 1.49a23.412 23.412 0 0 1-.409.7c-.116.2-.221.39-.31.604-.18.436-.272.922-.346 1.76-.139 1.587-.649 2.513-1.255 2.9a.461.461 0 0 1-.134.063c-.023.005-.032.003-.033.003a.075.075 0 0 1-.028-.015.417.417 0 0 1-.085-.096c-.16-.23-.304-.712-.36-1.433v-.006l-.007-.075c-.064-.71-.152-1.682-.479-2.423-.173-.393-.435-.775-.846-1.009-.422-.24-.926-.28-1.49-.132l-.008.002-.007.002c-.67.195-1.128.844-1.38 2.075-.099.469-.144.952-.18 1.383l-.01.14a10.25 10.25 0 0 1-.111.99c-.06.324-.137.458-.189.506v.001c-.011.01-.066.066-.307.007-.418-.162-.755-.581-.993-1.167a4.938 4.938 0 0 1-.344-1.704v-.103c0-.532.002-1.093-.204-1.656-.183-.504-.531-.979-.951-1.548-.232-.33-.31-.84-.292-1.287Z" fill="#212121"/>
</svg>
